svg/NEPAnode-EnergyInfrastructure/PumpedStorage_Icon.svg

<?xml version="1.0" encoding="UTF-8" standalone="no"?>
<!-- Created with Inkscape (http://www.inkscape.org/) -->

<svg
   xmlns:dc="http://purl.org/dc/elements/1.1/"
   xmlns:cc="http://creativecommons.org/ns#"
   xmlns:rdf="http://www.w3.org/1999/02/22-rdf-syntax-ns#"
   xmlns:svg="http://www.w3.org/2000/svg"
   xmlns="http://www.w3.org/2000/svg"
   xmlns:xlink="http://www.w3.org/1999/xlink"
   xmlns:sodipodi="http://sodipodi.sourceforge.net/DTD/sodipodi-0.dtd"
   xmlns:inkscape="http://www.inkscape.org/namespaces/inkscape"
   version="1.1"
   width="250"
   height="250"
   viewBox="0 0 0.34722222 0.34722222"
   id="svg2"
   inkscape:version="0.48.4 r9939"
   sodipodi:docname="PumpedStorage_Icon.svg">
  <sodipodi:namedview
     pagecolor="#ffffff"
     bordercolor="#666666"
     borderopacity="1"
     objecttolerance="10"
     gridtolerance="10"
     guidetolerance="10"
     inkscape:pageopacity="0"
     inkscape:pageshadow="2"
     inkscape:window-width="1360"
     inkscape:window-height="744"
     id="namedview17"
     showgrid="false"
     inkscape:zoom="2.232"
     inkscape:cx="125"
     inkscape:cy="187.31164"
     inkscape:window-x="0"
     inkscape:window-y="24"
     inkscape:window-maximized="1"
     inkscape:current-layer="svg2" />
  <title
     id="title4">SVG drawing</title>
  <desc
     id="desc6">This was produced by version 4.1 of GNU libplot, a free library for exporting 2-D vector graphics.</desc>
  <metadata
     id="metadata3395">
    <rdf:RDF>
      <cc:Work
         rdf:about="">
        <dc:format>image/svg+xml</dc:format>
        <dc:type
           rdf:resource="http://purl.org/dc/dcmitype/StillImage" />
        <dc:title>SVG drawing</dc:title>
      </cc:Work>
    </rdf:RDF>
  </metadata>
  <defs
     id="defs3393">
    <linearGradient
       id="linearGradient8138">
      <stop
         id="stop8140"
         style="stop-color:#ffffff;stop-opacity:0"
         offset="0" />
      <stop
         id="stop8142"
         style="stop-color:#000000;stop-opacity:0"
         offset="1" />
    </linearGradient>
    <radialGradient
       cx="0.17569096"
       cy="0.17470571"
       r="0.16916668"
       fx="0.17569096"
       fy="0.17470571"
       id="radialGradient8144"
       xlink:href="#linearGradient8138"
       gradientUnits="userSpaceOnUse" />
  </defs>
  <text
     x="-0.032071669"
     y="0.3455472"
     id="text7140"
     xml:space="preserve"
     style="font-size:0.0555556px;font-style:normal;font-variant:normal;font-weight:normal;font-stretch:normal;line-height:125%;letter-spacing:0px;word-spacing:0px;fill:#000000;fill-opacity:1;stroke:none;font-family:Energy Infrastructure;-inkscape-font-specification:Energy Infrastructure"><tspan
       x="-0.032071669"
       y="0.3455472"
       id="tspan7142"
       style="font-size:0.59036261px" /></text>
  <path
     d="M 329.28829,363.4657 A 105.41456,102.94666 0 1 1 118.45918,363.4657 105.41456,102.94666 0 1 1 329.28829,363.4657 z"
     transform="matrix(0.00161659,0,0,0.00168318,-0.18770819,-0.44043665)"
     id="path3037"
     style="opacity:0;fill:#000000;fill-opacity:1;fill-rule:nonzero;stroke:#000000;stroke-opacity:1" />
  <path
     d="M 296.14793,366.28613 A 58.877029,87.434151 0 1 1 178.39388,366.28613 58.877029,87.434151 0 1 1 296.14793,366.28613 z"
     transform="matrix(0.00161659,0,0,0.00168318,-0.18770819,-0.44043665)"
     id="path3807"
     style="opacity:0;fill:#000000;fill-opacity:1;fill-rule:nonzero;stroke:#000000;stroke-width:2;stroke-linejoin:round;stroke-miterlimit:4;stroke-opacity:1;stroke-dasharray:none" />
  <g
     style="font-size:0.0555556px;font-style:normal;font-variant:normal;font-weight:normal;font-stretch:normal;line-height:125%;letter-spacing:0px;word-spacing:0px;fill:#000000;fill-opacity:1;fill-rule:evenodd;stroke:none;font-family:Energy Infrastructure;-inkscape-font-specification:Energy Infrastructure"
     id="text8169">
    <path
       d="M 0.05851592,0.2929725 C 0.05423806,0.29802811 0.04918251,0.30055588 0.04334925,0.30055584 0.03751585,0.300167 0.0324603,0.29744478 0.02818258,0.29238917 0.02468253,0.28811145 0.02351586,0.28286146 0.02468258,0.27663917 0.02623808,0.27002813 0.02837697,0.26361147 0.03109925,0.25738917 0.0342103,0.25116704 0.0373214,0.24591705 0.04043258,0.24163917 0.04393251,0.23697261 0.0460714,0.23463928 0.04684925,0.23463917 0.04762695,0.23425039 0.04762695,0.23541706 0.04684925,0.23813917 0.0460714,0.24047261 0.04723806,0.24611149 0.05034925,0.25505583 0.05112695,0.25738926 0.05248806,0.26011148 0.05443258,0.2632225 0.05637694,0.2659448 0.05812694,0.26905591 0.05968259,0.27255584 0.06123805,0.27566702 0.06201583,0.27897257 0.06201592,0.2824725 0.06240471,0.28597256 0.06123805,0.28947256 0.05851592,0.2929725 M 0.17401593,0.00888915 C 0.19579348,0.00888949 0.21329346,0.01316726 0.22651593,0.02172248 0.24012677,0.03027836 0.25101565,0.04136168 0.2591826,0.05497249 0.26734897,0.06858388 0.27376563,0.08375053 0.2784326,0.10047249 0.28348784,0.11719494 0.2881545,0.13352826 0.2924326,0.14947249 0.29671005,0.16541712 0.3017656,0.18019488 0.30759927,0.19380583 0.31343226,0.20702819 0.32159892,0.21713929 0.33209927,0.22413917 L 0.33209927,0.24630583 C 0.32198781,0.24202816 0.31382115,0.2356115 0.30759927,0.22705583 0.30137671,0.2185004 0.29593228,0.20877819 0.29126593,0.19788916 0.28698784,0.18661155 0.28309895,0.174556 0.27959927,0.16172249 0.27648785,0.14888936 0.27298785,0.13625048 0.26909927,0.12380583 0.26559897,0.11097273 0.2613212,0.09872274 0.25626593,0.08705582 0.25159898,0.07500054 0.24557121,0.06450055 0.2381826,0.05555582 L 0.20901593,0.10630582 0.20901593,0.34722251 0.14309926,0.34722251 0.14309926,0.17105583 C 0.14037686,0.17027823 0.13493243,0.16911156 0.12676592,0.16755583 0.11859911,0.16600045 0.10984912,0.16561157 0.10051592,0.16638916 0.09157135,0.16716712 0.08359914,0.17027823 0.07659925,0.1757225 0.06959915,0.18116711 0.06590471,0.19050043 0.06551592,0.2037225 L 0.02234925,0.2037225 C 0.02079364,0.18894488 0.0223492,0.17688933 0.02701592,0.16755583 0.03207141,0.15783379 0.03868251,0.15025047 0.04684925,0.14480583 0.05501583,0.1389727 0.06415471,0.13488937 0.07426592,0.13255583 0.08437692,0.12983382 0.09409913,0.12827827 0.10343259,0.12788916 0.11315467,0.1271116 0.12151577,0.12691716 0.12851592,0.12730583 0.13590465,0.12769493 0.14076575,0.12808382 0.14309926,0.12847249 L 0.14309926,0.09580582 0.17401593,0.09580582 0.17401593,0.02580582 0.17401593,0.02463915 0.17401593,0.00888915 M 0.22826593,0.04505582 C 0.22165457,0.03961168 0.21426568,0.03533391 0.20609926,0.03222249 0.19793237,0.0287228 0.18859904,0.02658392 0.17809926,0.02580582 L 0.17809926,0.09580582 0.19851593,0.09580582 0.22826593,0.04505582"
       style="font-size:0.58333337px;fill:#000000"
       id="path2995" />
  </g>
</svg>

<svg xmlns="http://www.w3.org/2000/svg" width="250" height="250" viewBox="0 0 0.34722222 0.34722222"><text x="-.032" y=".346" font-family="Energy Infrastructure" word-spacing="0" line-height="125%" letter-spacing="0" font-size=".056"><tspan x="-.032" y=".346" font-size=".59"/></text><g fill-rule="evenodd"><path d="m.059.293c-.004.005-.009.008-.015.008-.006 0-.011-.003-.015-.008-.004-.004-.005-.001-.003-.016.002-.007.004-.013.006-.019.003-.006.006-.011.009-.016.003-.005.006-.007.006-.007.0001 0 .0001.0001 0 .004-.0001.002 0 .008.003.017.0001.002.002.005.004.008.002.003.004.006.005.009.002.003.002.006.002.001 0 .004-.0001.007-.004.011m.116-.284c.022 0 .039.004.052.013.014.009.024.02.033.033.008.014.015.029.019.045.005.017.001.033.014.049.004.016.009.031.015.044.006.013.014.023.025.03v.022c-.001-.004-.018-.011-.025-.019-.006-.009-.012-.018-.016-.029-.004-.011-.008-.023-.012-.036-.003-.013-.007-.025-.011-.038-.004-.013-.008-.025-.013-.037-.005-.012-.011-.023-.018-.032l-.029.051v.241h-.066v-.176c-.003-.0001-.008-.002-.016-.004-.008-.002-.017-.002-.026-.0001-.009.0001-.017.004-.024.009-.007.005-.011.015-.011.028h-.043c-.002-.015 0-.027.005-.036.005-.001.012-.017.02-.023.008-.006.017-.001.027-.012.001-.003.02-.004.029-.005.001-.0001.018-.0001.025-.0001.007 0 .012.0001.015.0001v-.033h.031v-.07-.0001-.016m.054.036c-.007-.005-.014-.001-.022-.013-.008-.003-.018-.006-.028-.006v.07h.02l.03-.051"/></g></svg>
